!!!COM: Bach, Johann Sebastian
!!!OPR: Das wohltemperirte Clavier, Band I
!!!XEN: The Well-Tempered Clavier, Volume I
!!!OTL: Prelude in C-sharp Major
!!!OMV: Prelude III
!!!SCT: BWV 848
!!!SCA: Thematisch-systematisches Verzeichnis der musikalischen Werke Johann Sebastian Bach: Bach-Werke-Verzeichnis (Schmieder)
!!!YOR: Bach Gesellschaft Edition xiv
!!!ENC: Walter Hewlett
!!!CDT: 1685/3//-1750/7/28/
!!!OCY: Deutschland
!!!YEC: Copyright (c) 1994, 2000 Center for Computer Assisted Research in the Humanities
!!!YEM: Rights to all derivative editions reserved
!!!YEN: United States of America
**kern
*k[f#c#g#d#a#e#b#]
*C#:
*M3/8
*MM84
=1-
*^
16ee#\LL	4C#/
16cc#\	.
16g#\	.
16cc#\	.
16ee#\	8c#\
16cc#\JJ	.
=2	=2
16ff#\LL	4D#\
16cc#\	.
16ff#\	.
16cc#\	.
16ff#\	8c#\
16cc#\JJ	.
=3	=3
16gg#\LL	4E#\
16cc#\	.
16gg#\	.
16cc#\	.
16gg#\	8c#\
16cc#\JJ	.
=4	=4
16aa#\LL	4F#\
16cc#\	.
16aa#\	.
16cc#\	.
16aa#\	8c#\
16cc#\JJ	.
=5	=5
16gg#\LL	4E#\
16cc#\	.
16gg#\	.
16cc#\	.
16gg#\	8c#\
16cc#\JJ	.
=6	=6
16ff#\LL	4D#\
16ee#\	.
16dd#\	.
16ee#\	.
16ff#\	8B#\
16dd#\JJ	.
=7	=7
16ee#\LL	4C#/
16dd#\	.
16cc#\	.
16dd#\	.
16ee#\	[8c#\
16cc#\JJ	.
=8	=8
16dd#\LL	8c#\L]
16ee#\	.
16dd#\	16B#\L
16cc#\	16A#\
16b#\	16G#\
16a#\JJ	16A#\JJ
=9	=9
4g#/	16B#\LL
.	16G#\
.	16D#\
.	16G#\
8gg#\	16B#\
.	16G#\JJ
=10	=10
4a#/	16c#\LL
.	16G#\
.	16c#\
.	16G#\
8gg#\	16c#\
.	16G#\JJ
=11	=11
4b#\	16d#\LL
.	16G#\
.	16d#\
.	16G#\
8gg#\	16d#\
.	16G#\JJ
=12	=12
4cc#\	16e#\LL
.	16G#\
.	16e#\
.	16G#\
8gg#\	16e#\
.	16G#\JJ
=13	=13
4b#\	16d#\LL
.	16G#\
.	16d#\
.	16G#\
8gg#\	16d#\
.	16G#\JJ
=14	=14
4a#/	16c#\LL
.	16B#\
.	16A#\
.	16B#\
8ff##\	16c#\
.	16A#\JJ
=15	=15
4g#/	16B#\LL
.	16A#\
.	16G#\
.	16A#\
[8gg#\	16B#\
.	16G#\JJ
=16	=16
8gg#\L]	16A#\LL
.	16Bn\
16ff#\L	16A#\
16ee#\	16G#\
16dd#\	16F#\
16ee#\JJ	16E#\JJ
=17	=17
16ff#\LL	4D#\
16dd#\	.
16a#\	.
16dd#\	.
16ff#\	8d#\
16dd#\JJ	.
=18	=18
16gg#\LL	4E#\
16dd#\	.
16gg#\	.
16dd#\	.
16gg#\	8d#\
16dd#\JJ	.
=19	=19
16aa#\LL	4F#\
16dd#\	.
16aa#\	.
16dd#\	.
16aa#\	8d#\
16dd#\JJ	.
=20	=20
16bbn\LL	4G#\
16dd#\	.
16bb\	.
16dd#\	.
16bb\	8d#\
16dd#\JJ	.
=21	=21
16aa#\LL	4F#\
16dd#\	.
16aa#\	.
16dd#\	.
16aa#\	8d#\
16dd#\JJ	.
=22	=22
16gg#\LL	4E#\
16ff#\	.
16ee#\	.
16ff#\	.
16gg#\	8c##\
16ee#\JJ	.
=23	=23
16ff#\LL	4D#\
16ee#\	.
16dd#\	.
16ee#\	.
16ff#\	[8d#\
16dd#\JJ	.
=24	=24
16ee#\LL	8d#\L]
16ff#\	.
16ee#\	16c#\L
16dd#\	16B#\
16cc#\	16A#\
16b#\JJ	16B#\JJ
=25	=25
4a#/	16c#\LL
.	16A#\
.	16E#\
.	16A#\
8aa#\	16c#\
.	16A#\JJ
=26	=26
4b#\	16d#\LL
.	16A#\
.	16d#\
.	16A#\
8aa#\	16d#\
.	16A#\JJ
=27	=27
4cc#\	16e#\LL
.	16A#\
.	16e#\
.	16A#\
8aa#\	16e#\
.	16A#\JJ
=28	=28
4dd#\	16f#\LL
.	16A#\
.	16f#\
.	16A#\
8aa#\	16f#\
.	16A#\JJ
=29	=29
4cc#\	16e#\LL
.	16A#\
.	16e#\
.	16A#\
8aa#\	16e#\
.	16A#\JJ
=30	=30
4b#\	16d#\LL
.	16c#\
.	16B#\
.	16c#\
8gg##\	16d#\
.	16B#\JJ
=31	=31
4a#/	16c#\LL
.	16B#\
.	16A#\
.	16B#\
[8aa#\	16c#\
.	16A#\JJ
=32	=32
8aa#\L]	16d##\LL
.	16c##\
8gg#\	16B#\
.	16c##\
8ff##\J	16d##\
.	16B#\JJ
=33	=33
8gg#\L	16e#\LL
.	16d##\
8g#\	16e#\
.	16f##\
[8gg#\J	16e#\
.	16d#\JJ
=34	=34
8gg#\L]	16c##\LL
.	16B#\
8ff#\	16A#\
.	16B#\
8ee#\J	16c##\
.	16A#\JJ
=35	=35
16ff#\LL	8d#\L
16ee#\	.
16dd#\	8D#\
16ee#\	.
16ff#\	[8d#\J
16dd#\JJ	.
=36	=36
16gg##\LL	8d#\L]
16ff##\	.
16ee#\	8c#\
16ff##\	.
16gg##\	8B#\J
16ee#\JJ	.
=37	=37
16aa#\LL	8c#\L
16gg##\	.
16aa#\	8C#\
16bb#\	.
16aa#\	[8c#\J
16gg#\JJ	.
=38	=38
16ff##\LL	8c#\L]
16ee#\	.
16dd#\	8B#\
16ee#\	.
16ff##\	8A#\J
16dd#\JJ	.
=39	=39
8gg#\L	16B#\LL
.	16A#\
8g#\	16G#\
.	16A#\
[8gg#\J	16B#\
.	16G#\JJ
=40	=40
8gg#\L]	16c##\LL
.	16B#\
8ff#\	16A#\
.	16B#\
8ee#\J	16c##\
.	16A#\JJ
=41	=41
8ff#\L	16d#\LL
.	16c##\
8f#\	16d#\
.	16e#\
[8ff#\J	16d#\
.	16c#\JJ
=42	=42
8ff#\L]	16B#\LL
.	16A#\
8ee#\	16G#\
.	16A#\
8dd#\J	16B#\
.	16G#\JJ
=43	=43
16ee#\LL	8c#\L
16dd#\	.
16cc#\	8C#\
16dd#\	.
16ee#\	[8c#\J
16cc#\JJ	.
=44	=44
16ff##\LL	8c#\L]
16ee#\	.
16dd#\	8Bn\
16ee#\	.
16ff##\	8A#\J
16dd#\JJ	.
=45	=45
16gg#\LL	8Bn\L
16ff##\	.
16gg#\	8BBn\
16aa#\	.
16gg#\	[8B\J
16ff#\JJ	.
=46	=46
16ee#\LL	8B\L]
16dd#\	.
16cc#\	8A#\
16dd#\	.
16ee#\	8G#\J
16cc#\JJ	.
=47	=47
4f#/	16A#\LL
.	16F#\
.	16C#\
.	16F#\
8ff#\	16A#\
.	16F#\JJ
=48	=48
4g#/	16Bn\LL
.	16F#\
.	16B\
.	16F#\
8ff#\	16B\
.	16F#\JJ
=49	=49
4a#/	16c#\LL
.	16F#\
.	16c#\
.	16F#\
8ff#\	16c#\
.	16F#\JJ
=50	=50
4bn\	16d#\LL
.	16F#\
.	16d#\
.	16F#\
8ff#\	16d#\
.	16F#\JJ
=51	=51
4a#/	16c#\LL
.	16F#\
.	16c#\
.	16F#\
8ff#\	16c#\
.	16F#\JJ
=52	=52
4g#/	16Bn\LL
.	16A#\
.	16G#\
.	16A#\
8ee#\	16B\
.	16G#\JJ
=53	=53
4f#/	16A#\LL
.	16G#\
.	16F#\
.	16G#\
[8ff#\	16A#\
.	16F#\JJ
=54	=54
8ff#\L]	16G#\LL
.	16A#\
16ee#\L	16G#\
16dd#\	16F#\
16cc#\	16E#\
16dd#\JJ	16D#\JJ
=55	=55
16ee#\LL	4C#/
16cc#\	.
16g#\	.
16cc#\	.
16ee#\	8c#\
16cc#\JJ	.
=56	=56
16ff#\LL	4D#\
16cc#\	.
16ff#\	.
16cc#\	.
16ff#\	8c#\
16cc#\JJ	.
=57	=57
16gg#\LL	4E#\
16cc#\	.
16gg#\	.
16cc#\	.
16gg#\	8c#\
16cc#\JJ	.
=58	=58
16aa#\LL	4F#\
16cc#\	.
16aa#\	.
16cc#\	.
16aa#\	8c#\
16cc#\JJ	.
=59	=59
16gg#\LL	4E#\
16cc#\	.
16gg#\	.
16cc#\	.
16gg#\	8c#\
16cc#\JJ	.
=60	=60
16ff#\LL	4D#\
16ee#\	.
16dd#\	.
16ee#\	.
16ff#\	8B#\
16dd#\JJ	.
=61	=61
16ee#\LL	4C#/
16dd#\	.
16cc#\	.
16dd#\	.
16ee#\	8c#\
16cc#\JJ	.
=62	=62
16dd#\LL	8F#\L
16ee#\	.
16dd#\	8E#\
16cc#\	.
16b#\	8D#\J
16a#\JJ	.
=63	=63
16b#/LL	8G#\L
16g#/JJ	.
16r	8f#\
16g#/	.
16r	8d#\J
16g#/	.
=64	=64
16b#/LL	8G#\L
16g#/JJ	.
16r	8f#\
16g#/	.
16r	8d#\J
16g#/	.
=65	=65
16cc#/LL	8G#\L
16g#/JJ	.
16r	8e#\
16g#/	.
16r	8c#\J
16g#/	.
=66	=66
16cc#/LL	8G#\L
16g#/JJ	.
16r	8e#\
16g#/	.
16r	8c#\J
16g#/	.
=67	=67
16ff#\LL	8G#\L
16g#\JJ	.
16r	8d#\
16g#/	.
16r	8B#\J
16g#/	.
=68	=68
16ff#\LL	8G#\L
16g#\JJ	.
16r	8d#\
16g#/	.
16r	8B#\J
16g#/	.
=69	=69
16ee#\LL	8G#\L
16g#\JJ	.
16r	8e#\
16g#/	.
16r	8c#\J
16g#/	.
=70	=70
16ee#\LL	8G#\L
16g#\JJ	.
16r	8e#\
16g#/	.
16r	8c#\J
16g#/	.
=71	=71
16ff##\LL	8G#\L
16a#\JJ	.
16r	8en\
16a#/	.
16r	8c#\J
16a#/	.
=72	=72
16ff##\LL	8G#\L
16a#\JJ	.
16r	8en\
16a#/	.
16r	8c#\J
16a#/	.
=73	=73
16gg#\LL	8G#\L
16b#\JJ	.
16r	8d#\
16b#\	.
16r	8B#\J
16b#\	.
=74	=74
16gg#\LL	8F#\L
16b#\JJ	.
16r	8d#\
16b#\	.
16r	8B#\J
16b#\	.
=75	=75
16gg#\LL	8E#\L
16cc#\JJ	.
16r	8e#\
16g#/	.
16r	8c#\J
16cc#\	.
=76	=76
16r	8G#\L
16ee#\	.
16r	8E#\
16gg#\	.
16r	8D#\J
16aa#\	.
=77	=77
16bbn\LL	8C##\L
16aa#\	.
16gg#\	8E#\
16ff#\	.
16ee#\	8A#\J
16dd#\JJ	.
=78	=78
16ee#\LL	8c##\L
16ff#\	.
16gg#\	8e#\
16bbn\	.
16aa#\	8g#\J
16gg#\JJ	.
=79	=79
16aa#\LL	8f#\L
16dd#\JJ	.
16r	8d#\
16f#/	.
16r	8A#\J
16a#/	.
=80	=80
16r	8F#\L
16dd#\	.
16r	8D#\
16ff#\	.
16r	8C#\J
16gg#\	.
=81	=81
16aan\LL	8BB#\L
16gg#\	.
16ff#\	8D#\
16een\	.
16dd#\	8G#\J
16cc#\JJ	.
=82	=82
16dd#\LL	8B#\L
16een\	.
16ff#\	8d#\
16aan\	.
16gg#\	8f#\J
16ff#\JJ	.
=83	=83
16gg#\LL	8en\L
16cc#\JJ	.
16r	8c#\
16een\	.
16r	8An\J
16cc#\	.
=84	=84
16r	8F#\L
16an/	.
16r	8d#\
16f#/	.
16r	8B#\J
16dd#\	.
=85	=85
16r	8En\L
16g#/	.
16r	8c#\
16en/	.
16r	8An\J
16cc#\	.
=86	=86
16r	8F#\L
16an/	.
16r	8D#\
16f#/	.
16r	8BB#\J
16d#/	.
=87	=87
16B#/LL	8GG#\L
16G#/JJ	.
16r	8F#\
16G#/	.
16r	8D#\J
16G#/	.
=88	=88
16B#/LL	8GG#\L
16G#/JJ	.
16r	8F#\
16G#/	.
16r	8D#\J
16G#/	.
=89	=89
16c#/LL	8GG#\L
16G#/JJ	.
16r	8E#\
16G#/	.
16r	8C#\J
16G#/	.
=90	=90
16c#/LL	8GG#\L
16G#/JJ	.
16r	8E#\
16G#/	.
16r	8C#\J
16G#/	.
=91	=91
16f#\LL	8GG#\L
16G#/JJ	.
16r	8D#\
16G#/	.
16r	8BB#\J
16G#/	.
=92	=92
16f#\LL	8GG#\L
16G#/JJ	.
16r	8D#\
16G#/	.
16r	8BB#\J
16G#/	.
=93	=93
16e#\LL	8GG#\L
16G#/JJ	.
16r	8E#\
16G#/	.
16r	8C#\J
16G#/	.
=94	=94
16e#\LL	8GG#\L
16G#/JJ	.
16r	8E#\
16G#/	.
16r	8C#\J
16G#/	.
=95	=95
16f##\LL	8GG#\L
16A#/JJ	.
16r	8En\
16A#/	.
16r	8C#\J
16A#/	.
=96	=96
16f##\LL	8GG#\L
16A#/JJ	.
16r	8En\
16A#/	.
16r	8C#\J
16A#/	.
=97	=97
4.ryy	16GG#\LL
.	16BB#\
.	16D#\JJ
.	16F#/LL
.	16An/
.	16B#/JJ
=98	=98
16c#\LL	4.ryy
16en\	.
16f##\JJ	.
16a#/LL	.
16cc#/	.
16een/JJ	.
=99	=99
16b#\LL	8GG#/
16dd#\	.
16ff#\	8r
16dd#\	.
16b#\	8r
16g#\JJ	.
=100	=100
16f#\LL	4.ryy
16d#\	.
16B#\	.
16G#\	.
16B#\	.
16d#\JJ	.
=101	=101
16e#/LL	8G#\
16g#/	.
16cc#/	8r
16g#/	.
16e#/	8r
16c#/JJ	.
=102	=102
4.ryy	16A#/LL
.	16F##/
.	16En/
.	16C#/
.	16E/
.	16F##/JJ
=103	=103
*^	*
8r	8r	4.GG#\
8cc#/ 8g#/ 8e#/L	8G#/L 8E#/ 8C#/	.
8b#/ 8g#/ 8d#/J	8G#/J 8F#/ 8D#/	.
=104	=104	=104
4.cc#/ 4.g#/ 4.c#/	4.G#/ 4.E#/	4.C#\
==|!	==|!	==|!
*-	*-	*-
!!!END: 1994/01/08/
!!!KEY: 2041284012
!!!EMD: Converted from MuseData to Humdrum Dec 19, 2000, by Andreas Kornstaedt using muse2kern.
